src/assets/icons/sepa.svg

<svg width="80" height="22" viewBox="0 0 80 22" fill="none" xmlns="http://www.w3.org/2000/svg">
<path id="Union" fill-rule="evenodd" clip-rule="evenodd" d="M12.6963 7.11869H18.0416C18.0416 6.62943 18.0416 6.26249 18.4575 6.14018C18.4575 3.30249 17.2221 1.46777 14.8858 0.856201C13.2662 0.61304 11.6308 0.490357 9.99313 0.489257C8.50087 0.489257 7.2777 0.489257 6.05453 0.611571C4.77815 0.582338 3.52746 0.973377 2.49511 1.72463C1.8527 2.16716 1.3786 2.81359 1.14962 3.55934C0.907557 4.6477 0.784505 5.75917 0.78267 6.87406C0.64592 8.26954 0.900095 9.67555 1.51657 10.9349C1.91471 11.5274 2.44165 12.0223 3.05813 12.3824C3.67449 12.7425 4.36435 12.9585 5.07599 13.0142C5.68758 13.1366 6.92298 13.2589 8.63541 13.3812C9.76073 13.5157 10.9839 13.638 12.2071 13.7604C12.534 13.9009 12.8062 14.1439 12.9828 14.4529C13.1593 14.7619 13.2305 15.1198 13.1856 15.4728C13.1978 15.8074 13.1566 16.1418 13.0633 16.4635C13.0057 16.7026 12.8824 16.9211 12.7073 17.0939C12.5323 17.2667 12.3124 17.3873 12.0725 17.442C11.4255 17.5437 10.7702 17.5846 10.1154 17.5643H8.14615C7.68354 17.6124 7.21678 17.5275 6.80066 17.3197C6.48814 17.1337 6.23849 16.8583 6.08364 16.5292C5.92891 16.2 5.87619 15.8321 5.93221 15.4728V14.9835H0.55027C0.423305 16.2633 0.547945 17.5555 0.91722 18.7875C1.14999 19.4406 1.53749 20.0276 2.04657 20.4984C2.55578 20.9692 3.17127 21.3096 3.84059 21.4906C5.94334 21.8968 8.0856 22.061 10.2255 21.9799C11.5797 22.0204 12.9348 21.9385 14.2742 21.7352C15.1394 21.6615 15.9699 21.3616 16.6826 20.8657C17.3954 20.3699 17.9653 19.6953 18.3351 18.9098C18.746 17.6862 18.9122 16.3937 18.8244 15.1058C18.8443 14.4064 18.8035 13.7065 18.7021 13.0142C18.5738 12.0867 18.144 11.2271 17.4789 10.568C16.3168 9.66442 14.9011 9.14703 13.4302 9.08795C11.9617 8.88821 10.4837 8.76578 9.00237 8.72101L7.90151 8.59869C7.51829 8.53215 7.14718 8.40837 6.80066 8.23175C6.55627 8.0506 6.36815 7.80402 6.2577 7.52049C6.14737 7.23709 6.11936 6.92812 6.17684 6.62943C6.16975 6.30701 6.23287 5.98692 6.36167 5.69116C6.49047 5.39553 6.68201 5.13133 6.92298 4.91703C7.81442 4.5419 8.79088 4.41518 9.7485 4.55009C11.2285 4.55009 12.0725 4.79472 12.4517 5.28398C12.6525 5.87365 12.7357 6.49697 12.6963 7.11869ZM41.7466 0.122315V21.7964L47.6912 21.8576V16.2066H52.1435C53.4977 16.2066 54.4508 16.1409 54.9594 16.1058C55.1445 16.093 55.2707 16.0843 55.336 16.0843C56.2987 16.0168 57.2202 15.6661 57.984 15.0763C58.748 14.4865 59.3205 13.6839 59.6293 12.7696C60.0436 11.2111 60.2128 9.59763 60.1308 7.98712C60.1512 6.61683 59.9824 5.25034 59.6293 3.92629C59.3764 3.08623 58.908 2.32691 58.2706 1.72402C57.6333 1.12101 56.8493 0.695356 55.9965 0.489257C54.8669 0.24634 53.7148 0.123293 52.5594 0.122315H41.7466ZM51.3118 11.1184H47.6912L47.8135 4.85588H52.5349C52.8605 4.88046 53.1725 4.9969 53.4345 5.19175C53.6965 5.38672 53.8978 5.6519 54.015 5.95671C54.2169 6.63445 54.2996 7.34216 54.2596 8.04828C54.2798 8.62181 54.2388 9.19583 54.1373 9.76068C54.0437 10.215 53.7758 10.6146 53.3912 10.8737C52.7077 11.0226 52.0112 11.1045 51.3118 11.1184ZM64.8889 17.9924H72.5827L73.7325 21.7352H79.6281L72.9986 0H64.2774L57.7701 21.6619H63.7881L64.8889 17.9924ZM68.6563 4.35439L71.3595 13.8215H65.9653L68.6563 4.35439ZM39.0462 7.11918H27.192L26.9352 6.99687L27.0697 6.87455C27.5439 6.03633 28.1656 5.29059 28.9045 4.6729C30.5309 3.4215 32.5794 2.8498 34.6189 3.07792C36.6174 3.30145 38.4546 4.27598 39.76 5.80157L39.7173 5.89604H39.8396C39.8133 5.86432 39.7868 5.83283 39.76 5.80157L40.9013 3.2793C40.9144 3.29124 40.9274 3.30321 40.9404 3.31521V3.19289L40.9013 3.2793C39.086 1.62018 36.7698 0.611616 34.3174 0.413425C31.8473 0.21393 29.3816 0.848008 27.3143 2.21438C25.5908 3.42052 24.2289 5.07409 23.3757 6.99687H21.0395L19.6302 9.94464H19.4494L19.5717 10.067L19.6302 9.94464H22.6418V12.0118H21.0395L19.6302 14.9595H19.4494L19.5717 15.0818L19.6302 14.9595H23.3757C23.5888 15.5317 23.8812 16.0711 24.2442 16.5618C25.8606 18.9833 28.3706 20.6659 31.2245 21.2412C34.0785 21.8166 37.0443 21.2379 39.4726 19.6319V16.2163C39.5139 16.173 39.5547 16.1291 39.595 16.0848L39.4726 15.9625V16.2163C39.0297 16.6821 38.533 17.0937 37.9926 17.4425C37.1463 17.999 36.1986 18.3831 35.2038 18.5731C34.2089 18.7629 33.1863 18.7548 32.1945 18.5492C31.2028 18.3436 30.2612 17.9445 29.4238 17.3747C28.5864 16.805 27.8697 16.0756 27.3143 15.2286L27.192 15.1063H35.2894L36.7105 12.1585H36.8918L36.7694 12.0362L36.7105 12.1585H26.2013V12.0362C26.1004 11.6784 26.059 11.3066 26.0789 10.9354V10.067H37.6134L39.0462 7.11918ZM39.0462 7.11918H39.228L39.1057 6.99687L39.0462 7.11918Z" fill="#819EB0" fill-opacity="0.8"/>
</svg>

<svg width="80" height="22" fill="none" xmlns="http://www.w3.org/2000/svg"><path fill-rule="evenodd" clip-rule="evenodd" d="M12.696 7.119h5.346c0-.49 0-.857.415-.979 0-2.838-1.235-4.672-3.571-5.284A33.103 33.103 0 0 0 9.993.49c-1.492 0-2.715 0-3.938.123a5.823 5.823 0 0 0-3.56 1.113A3.462 3.462 0 0 0 1.15 3.559a15.385 15.385 0 0 0-.367 3.315 7.56 7.56 0 0 0 .734 4.06 4.734 4.734 0 0 0 3.559 2.08c.612.123 1.847.245 3.56.367 1.125.135 2.348.257 3.571.38a1.639 1.639 0 0 1 .979 1.712c.012.334-.03.669-.123.99a1.32 1.32 0 0 1-.99.979c-.648.102-1.303.143-1.958.122H8.146a2.446 2.446 0 0 1-1.345-.244 1.823 1.823 0 0 1-.869-1.847v-.49H.55a9.859 9.859 0 0 0 .367 3.805 4.294 4.294 0 0 0 2.924 2.703 28.06 28.06 0 0 0 6.384.489c1.355.04 2.71-.041 4.05-.245a4.953 4.953 0 0 0 4.06-2.825 9.846 9.846 0 0 0 .49-3.804c.02-.7-.021-1.4-.123-2.092a4.267 4.267 0 0 0-1.223-2.446 7.057 7.057 0 0 0-4.049-1.48 42.345 42.345 0 0 0-4.428-.367l-1.1-.122A3.89 3.89 0 0 1 6.8 8.232a1.615 1.615 0 0 1-.624-1.603 2.227 2.227 0 0 1 .746-1.712 5.358 5.358 0 0 1 2.825-.367c1.48 0 2.325.245 2.704.734.2.59.284 1.213.244 1.835zM41.746.122v21.674l5.945.062v-5.651h4.453a38.48 38.48 0 0 0 2.815-.101c.185-.013.312-.022.377-.022a4.893 4.893 0 0 0 4.293-3.314 15.54 15.54 0 0 0 .502-4.783 14.91 14.91 0 0 0-.502-4.06A5.025 5.025 0 0 0 55.996.488 16.415 16.415 0 0 0 52.56.122H41.747zm9.566 10.996h-3.62l.121-6.262h4.722a1.725 1.725 0 0 1 1.48 1.1c.202.678.285 1.386.245 2.092a8.06 8.06 0 0 1-.123 1.713 1.774 1.774 0 0 1-.746 1.113c-.683.149-1.38.23-2.08.244zm13.577 6.874h7.694l1.15 3.743h5.895L72.998 0h-8.72L57.77 21.662h6.018l1.1-3.67zm3.767-13.638 2.703 9.468h-5.394l2.691-9.468zM39.046 7.12H27.192l-.257-.122.135-.122a8.011 8.011 0 0 1 1.834-2.202A7.926 7.926 0 0 1 39.76 5.802l-.043.094h.123a7.494 7.494 0 0 0-.08-.094l1.141-2.523a8.4 8.4 0 0 1 .04.036v-.122l-.04.086a11.082 11.082 0 0 0-13.587-1.065 11.56 11.56 0 0 0-3.938 4.783h-2.337L19.63 9.945h-.18l.122.122.058-.122h3.012v2.067H21.04l-1.41 2.947h-.18l.122.123.058-.123h3.746c.213.573.505 1.112.868 1.603a11.008 11.008 0 0 0 15.229 3.07v-3.416l.122-.131-.122-.123v.254c-.443.466-.94.878-1.48 1.226a7.708 7.708 0 0 1-10.679-2.213l-.122-.123h8.097l1.422-2.947h.18l-.122-.123-.058.123H26.2v-.123c-.1-.358-.142-.73-.122-1.1v-.869h11.534l1.433-2.948zm0 0h.182l-.122-.122-.06.122z" fill="#819EB0" fill-opacity=".8"/></svg>
